src/raw/task-list/icon_32.svg

<svg width="32" height="32" viewBox="0 0 32 32" fill="none" xmlns="http://www.w3.org/2000/svg">
<path d="M28.4948 23.1866L21.8388 29.844C21.4672 30.2154 21.0261 30.5099 20.5406 30.7108C20.0552 30.9116 19.5349 31.0149 19.0095 31.0146H6.3335C5.27263 31.0146 4.25521 30.5932 3.50507 29.8431C2.75492 29.0929 2.3335 28.0755 2.3335 27.0146V5.01465C2.3335 3.95378 2.75492 2.93637 3.50507 2.18622C4.25521 1.43608 5.27263 1.01465 6.3335 1.01465H25.6668C26.7277 1.01465 27.7451 1.43608 28.4953 2.18622C29.2454 2.93637 29.6668 3.95378 29.6668 5.01465V20.3586C29.6666 21.4194 29.245 22.4367 28.4948 23.1866Z" stroke="#71717A" stroke-width="1.5" stroke-linecap="round" stroke-linejoin="round"/>
<path d="M20 30.6667V25.3333C20 24.2725 20.4214 23.255 21.1716 22.5049C21.9217 21.7548 22.9391 21.3333 24 21.3333H29.2578" stroke="#71717A" stroke-width="1.5" stroke-linecap="round" stroke-linejoin="round"/>
<path d="M8 25.3333H13.3333" stroke="#71717A" stroke-width="1.5" stroke-linecap="round" stroke-linejoin="round"/>
<path d="M8 18.6667H18.6667" stroke="#71717A" stroke-width="1.5" stroke-linecap="round" stroke-linejoin="round"/>
<path d="M8 1.33466V11.668L12 8.668L16 11.6667V1.33333" stroke="#71717A" stroke-width="1.5" stroke-linecap="round" stroke-linejoin="round"/>
</svg>

<svg xmlns="http://www.w3.org/2000/svg" width="32" height="33" fill="none"><path stroke="#71717A" stroke-linecap="round" stroke-linejoin="round" stroke-width="2" d="m28.495 23.187-6.656 6.657a4 4 0 0 1-2.83 1.17H6.334a4 4 0 0 1-4-4v-22a4 4 0 0 1 4-4h19.333a4 4 0 0 1 4 4V20.36a4 4 0 0 1-1.172 2.828Z"/><path stroke="#71717A" stroke-linecap="round" stroke-linejoin="round" stroke-width="2" d="M20 30.667v-5.334a4 4 0 0 1 4-4h5.258M8 25.334h5.333M8 18.667h10.667M8 1.335v10.333l4-3 4 2.999V1.333"/></svg>
